X:1
T:20 Mélodies
T:Évocation d'amour
T:20 mélodies
T:12. Évocation d'amour
T:Augusta Holmès
T:(Holmès)
T:OpenScore (CC0)
T:OpenScore (CC0)
T:OpenScore (CC0)
T:OpenScore (CC0)
T:OpenScore (CC0)
T:OpenScore (CC0)
T:OpenScore (CC0)
T:OpenScore (CC0)
T:OpenScore (CC0)
C:Holmès, Augusta Mary Anne
Z:Augusta Holmès
Z:OpenScore (CC0)
%%score 1 { ( 2 3 6 ) | ( 4 5 7 ) }
L:1/8
Q:1/4=92
M:3/8
K:G
V:1 treble nm="chant"
V:2 treble nm="PIANO"
V:3 treble 
V:6 treble 
V:4 treble 
V:5 treble 
V:7 treble 
V:1
"^à Madame Madeleine LEMAIRE""^Andantino lusinghando." z3 | z3 | z3 | z3 | z3 | z3 | z3 | z3 | z3 | %9
w: |||||||||
 z3 ||[M:2/4][Q:1/4=80] z4 | z4 ||[M:3/8]"^CHANT"!pp![Q:1/4=92] D3/2 E/ B, || %13
w: |||Son- ge d'a-|
[M:2/4] !tenuto!B2 !tenuto!B2 ||[M:3/8] (!tenuto!c3/2 E/) G ||[M:2/4] (!tenuto!F2 !tenuto!A2) || %16
w: mour Où|l'âme est ber-|cé- e,|
[M:3/8] (!tenuto!c3/2 E/) G ||[M:2/4] !tenuto!F2 !tenuto!c2 ||[M:3/8] (!tenuto!B3/2 D/) F || %19
w: Qui nuit et|jour Ra-|vis ma pen-|
[M:2/4] (E2 _E2) ||[M:3/8] D3/2 E/ B, ||[M:2/4] !tenuto!B2 !tenuto!B2 || %22
w: sé- e!|O vi- si-|on! O|
[M:3/8] (!tenuto!c3/2 E/) G ||[M:2/4] !tenuto!F2 !tenuto!A2 ||[M:3/8] c3/2 E/ G || %25
w: ten- dre chi-|mè- re!|Il- lu- si-|
[M:2/4] !tenuto!F2 !tenuto!c2 ||[M:3/8] !tenuto!B3/2 D/ F ||[M:2/4] E2 D2 || %28
w: on De|joie é- phé-|mè- re!|
[K:B][M:3/8]!f! D3/2 F/ d ||[M:2/4] !tenuto!c2 !tenuto!B2 ||[M:3/8] (e3/2 G/) B || %31
w: Est- ce ta|voix Qui|chante et mur-|
[M:2/4] !tenuto!A2 !tenuto!c2 ||[M:3/8] (!tenuto!e3/2 G/) B ||[M:2/4] !tenuto!A2 !tenuto!e2 || %34
w: mu- re|Dans les grands|bois, Dans|
[M:3/8] !tenuto!d3/2 F/ A ||[M:2/4] !tenuto!G2 !tenuto!F2 ||[M:3/8]!f! D3/2 F/ d || %37
w: l'on- de si|pu- re?|Frè- re des|
[M:2/4] !tenuto!c2 !tenuto!B2 ||[M:3/8] (!tenuto!e3/2 G/) B ||[M:2/4] !tenuto!A2 !tenuto!c2 || %40
w: dieux Qu'en|rê- ve j'a-|do- re,|
[M:3/8] (!tenuto!e3/2 G/) B ||[M:2/4] !tenuto!A2 !tenuto!c2 || %42
w: Sont- ce tes|yeux Qui|
[K:G][M:3/8]"^rall."[Q:1/4=82]"^dim." (d3/2!mf! E/) G || %43
w: ver- sent l'au-|
[M:2/4]!mp![Q:1/4=80] !tenuto!F2 !tenuto!A2 || %44
w: ro- re?|
[M:3/8]!p!"^a Tempo."[Q:1/4=92]"^agitato" F3/2 E/ F ||[M:2/4] !tenuto!E2 !tenuto!D2 || %46
w: Est- ce de|toi Que|
[M:3/8]"^e" F3/2 E/ F ||[M:2/4] !tenuto!E2 !tenuto!D2 ||[M:3/8]"^cresc." !tenuto!F3/2 E/ F || %49
w: vient cette i-|vres- se|Qui malgré *|
[M:2/4] !tenuto!E2 !tenuto!D2 ||[M:3/8] !tenuto!F3/2 !tenuto!E/ F || %51
w: moi Me|brûle et m'op-|
[M:2/4] !tenuto!E2 !tenuto!D2 ||[M:3/8]"^a Tempo." =F3/2 E/ F ||[M:2/4] !tenuto!E2 !tenuto!D2 || %54
w: pres- se,|Et dans mon|cœur, Comme|
[M:3/8] (E3/2 D/) E ||[M:2/4] !tenuto!D2 !tenuto!C2 ||[M:3/8]!f! _E3/2 _D/ E || %57
w: u- ne ca-|res- se|Met le bon-|
[M:2/4]!<(! _D2 G2-!<)! ||[M:3/8]"^rall." G3/2[Q:1/4=82] F/ A || %59
w: heur Et|_ la dé-|
[M:2/4][Q:1/4=72] (!tenuto!E2 !tenuto!_E2) ||[M:3/8]!mf!"^a Tempo."[Q:1/4=92]!<(! D3/2 E/ B,!<)! || %61
w: tres- se?|L'air est en|
[M:2/4] B z G2 ||[M:3/8]!mf!"^molto rall." (g>=f[Q:1/4=70]_e |[Q:1/4=60]!>(! =F2!>)! _E) | %64
w: feu! J'ex-|pi- * *|* re...|
"^a Tempo.""^accel."[Q:1/4=92] _D3/2 _E/ =E |"^cresc." =F3/2 ^F/ B | A3/2 G/ B | (d>^d) e/ z/ | %68
w: Ah! de quel|dieu M'est ve-|nu ce dé-|li- * re!|
!p![Q:1/4=52]"^Lento."[Q:1/4=52]"_Lento." D E3/2 B,/ ||[M:2/4] !tenuto!B2 !tenuto!B2 || %70
w: Quel cher pou-|voir M'at-|
[K:E][M:3/8]!pp!"^rall. molto."[Q:1/4=80] (d>c[Q:1/4=65]B | C2 B,) || %72
w: ti- * *|* re?|
[K:G]"^a Tempo."[Q:1/4=92]!<(! E3/2 F/ G | B2 A!<)! |!>(! (e3 | E2)!>)! z | %76
w: Toi, pour qui|je sou-|pi-|re|
"^accel."[Q:1/4=100] (F E3/2 F/ |[Q:1/4=110] E2 ^C | ^c) z z/!f! ^A/ |"^cresc." e z !^!=f | %80
w: Ah! prends pi-|tié de|moi... pa-|rais... Je|
"^rall."[Q:1/4=80] (!^!^f3 | (D3) ||[M:2/4]"^a Tempo."[Q:1/4=92] B4-) | B2 z2 | z4[Q:1/4=86] | z4 | %86
w: veux|te|voir!|_|||
[Q:1/4=92] z4 | z4 | z4[Q:1/4=86] | z4 | z4 | z4 |[Q:1/4=86] z4 | z4 | z4 | z4 |[Q:1/4=80] z4 | %97
w: |||||||||||
 z4 ||[M:3/8]"^a Tempo."!pp![Q:1/4=92] D3/2 E/ B, ||[M:2/4] !tenuto!B2 !tenuto!B2 || %100
w: |Ro- ses de|Mai, Blu-|
[M:3/8] (!tenuto!c3/2 E/) G ||[M:2/4] (!tenuto!F2 !tenuto!A2) ||[M:3/8] (!tenuto!c3/2 E/) G || %103
w: ets des prai-|ri- es,|Lys par- fu-|
[M:2/4] !tenuto!F2 !tenuto!c2 ||[M:3/8] (B3/2 D/) F ||[M:2/4] (E2 _E2) ||[M:3/8] D3/2 E/ B, || %107
w: mé, Clo-|chet- tes fleu-|ri- es,|Thyr- ses lé-|
[M:2/4] !tenuto!B2 !tenuto!B2 ||[M:3/8] c3/2 E/ G ||[M:2/4] !tenuto!F2 !tenuto!A2 || %110
w: gers Des|frê- les bru-|yè- res,|
[M:3/8] c3/2 E/ G ||[M:2/4] !tenuto!F2 !tenuto!c2 ||[M:3/8] B3/2 D/ F ||[K:G][M:2/4] E2 D2 || %114
w: Blancs o- ran-|gers, Li-|a- nes et|lier- res,|
[K:B][M:3/8]!f! D3/2 F/ d ||[M:2/4] !tenuto!c2 !tenuto!B2 ||[M:3/8] (e3/2 G/) B || %117
w: Feuil- les et|fleurs, Guir-|lan- de clé-|
[M:2/4] !tenuto!A2 !tenuto!c2 ||[M:3/8] (e3/2 G/) B ||[M:2/4] !tenuto!A2 !tenuto!e2 || %120
w: men- te|I- vre des|pleurs Que|
[M:3/8] (!tenuto!d3/2 F/) A ||[M:2/4] !tenuto!G2 !tenuto!F2 ||[M:3/8]!f! D3/2 F/ d || %123
w: ver- se l'a-|man- te,|En- la- cez-|
[M:2/4] !tenuto!c2 !tenuto!B2 ||[M:3/8] (!tenuto!e3/2 G/) B ||[M:2/4] !tenuto!A2 !tenuto!c2 || %126
w: vous! Ca-|chez mon ex-|ta- se,|
[M:3/8] (!tenuto!e3/2 G/) B ||[M:2/4] !tenuto!A2 !tenuto!c2 || %128
w: Ce feu si|doux, Ce|
[K:G][M:3/8]"^rall."[Q:1/4=86]"^dim." (d3/2 E/) G ||[M:2/4] !tenuto!F2 !tenuto!A2 || %130
w: mal qui m'em-|bra- se...|
[M:3/8]!p!"^a Tempo."[Q:1/4=92]"^agitato" F3/2 E/ F ||[M:2/4] !tenuto!E2 !tenuto!D2 || %132
w: Chant des oi-|seaux, Aux|
[M:3/8] F3/2 E/ F ||[M:2/4] !tenuto!E2 !tenuto!D2 ||[M:3/8]"^e    cresc." F3/2 E/ F || %135
w: nuits é- toi-|lé- es,|Plain- tes des|
[M:2/4] !tenuto!E2 !tenuto!D2 ||[M:3/8] !tenuto!F3/2 !tenuto!E/ F || %137
w: eaux Dans|l'her- be voi-|
[M:2/4] !tenuto!E2 !tenuto!D2 ||[M:3/8]"^a Tempo."!p! =F3/2 E/ F ||[M:2/4] E2 D2 || %140
w: lé- es,|Va- gues ar-|deurs Des|
[M:3/8] (E3/2 D/) E ||[M:2/4] D2 C2 ||[M:3/8]!f! _E3/2 _D/ E || %143
w: voix en- vo-|lé- es,|A mes lan-|
[M:2/4]!<(! !tenuto!_D2 !tenuto!G2-!<)! ||[M:3/8]"^rall." G3/2[Q:1/4=80] F/ A || %145
w: gueurs Soy-|* ez mê-|
[M:2/4][Q:1/4=70] (!tenuto!E2 !tenuto!_E2) ||[M:3/8]!mf!"^a Tempo."[Q:1/4=92]!<(! D3/2 E/ B,!<)! || %147
w: lé- es!|L'air est en|
[M:2/4] B z G2 ||[M:3/8]"^Molto rall."[Q:1/4=80] (g>=f_e |!>(! =F2 _E)!>)! | %150
w: feu! J'ex-|pi- * *|* re...|
"^a Tempo.""^accel."!p! _D3/2 _E/[Q:1/4=96] =E |"^cresc." =F3/2[Q:1/4=106] ^F/ B |!<(! A3/2 G/ B | %153
w: Est- ce d'un|dieu que me|vient ce dé-|
 (d>^d)!<)! e/ z/ |!p![Q:1/4=52]"^Lento."[Q:1/4=52]"_Lento." D E3/2 B,/ || %155
w: li- * re?|Ah! Quel- le|
[M:2/4] !tenuto!B2 !tenuto!B2 ||[K:E][M:3/8]!pp!"^rall. molto." (d>c[Q:1/4=40]B | C2 B,) || %158
w: loi m'at-|ti- * *|* re?|
[K:G]"^a Tempo."[Q:1/4=92]!<(! E3/2 F/ G | B2!<)! A |!>(! (e3!>)! | E2) z | %162
w: Toi pour qui|je sou-|pi-|re,|
"^accel."[Q:1/4=100] (F E3/2 F/ |[Q:1/4=105] E2 ^C | ^c) z z/!f! ^A/ |"^cresc." e z !^!=f | %166
w: Mor- tel ou|dieu, pa-|rais! pa-|rais! Je|
"^rall."[Q:1/4=80] (!^!^f3 | (D3) ||[M:2/4]"^a Tempo."[Q:1/4=92] B4-) | B2 z2 | z4[Q:1/4=86] | z4 | %172
w: suis|à|toi!|_|||
[Q:1/4=92] z4 | z4 | z4[Q:1/4=86] | z4 |[Q:1/4=92] z4 | z4 | z4[Q:1/4=88] | z4 | z4 | z4 | z4 | %183
w: |||||||||||
 z4 | z4 | z4 |] %186
w: |||
V:2
!mf!!>(! e'2 ^d' | =d'2 ^c' | =c'2 b | ^a2 =a!>)! |!>(! ^g2 =g-!>)! |!<(! g3!<)! | %6
!>(! ^g2 =g-!>)! |!<(! g3!<)! |"_cresc." ^g2 a- | a3 ||[M:2/4]!f!{/f} !^![fac']4- | [fac']4 || %12
[M:3/8]!pp! z2 [Bgb]- ||[M:2/4] [Bgb]2 [Bgb] z ||[M:3/8] z2 [cegc']- || %15
[M:2/4] [cegc']2 [cdfc'] z ||[M:3/8] z2 [cegc']- ||[M:2/4] [cegc']2 [cdfc'] z || %18
[M:3/8] z2 [Bfb]- ||[M:2/4] [Bfb]2 [cgb] z ||[M:3/8] z2!pp! [Bgb]- ||[M:2/4] [Bgb]2 [Bgb] z || %22
[M:3/8] z2 [cegc']- ||[M:2/4] [cegc']2 [cdfc'] z ||[M:3/8] z2 [cegc']- || %25
[M:2/4] [cegc']2 [cdfc'] z ||[M:3/8] z2 [Bfb]- ||[M:2/4] [Bfb]2 [Bgb] z || %28
[K:B][M:3/8]!f! z2 [Bdf]- ||[M:2/4] [Bdf]2 [Bdg] z ||[M:3/8] z2 [Aeg]- ||[M:2/4] [Aeg]2 [Aea] z || %32
[M:3/8] z2 [Aeg]- ||[M:2/4] [Aeg]2 [Aea] z ||[M:3/8] z2 [Bda]- ||[M:2/4] [Bda]2 [Bdb] z || %36
[M:3/8]!f! z2 [Bdf]- ||[M:2/4] [Bdf]2 [Bdg] z ||[M:3/8] z2 [Aeg]- ||[M:2/4] [Aeg]2 [Aea] z || %40
[M:3/8] z2 [Aeg]- ||[M:2/4] [Aeg]2 [Aea] z ||[K:G][M:3/8]"^rall." z2!pp! [cegc']- || %43
[M:2/4] [cegc']2 [cdfc'] z ||[M:3/8]!pp!"^a Tempo.""_agitato" z2 ([Bgb]- || %45
[M:2/4] [Bgb]2 [dgd']) z ||[M:3/8]"_e" z2 ([cfc']- ||[M:2/4] [cfc']2 [dfd']) z || %48
[M:3/8]"_cresc." z2 ([cfc']- ||[M:2/4] [cfc']2 [dfd']) z ||[M:3/8] z2 ([Bgb]- || %51
[M:2/4] [Bgb]2 [dgd']) z ||[M:3/8]"^a Tempo." z2 ([B=fb]- ||[M:2/4] [B=fb]2 [fb=f']) z || %54
[M:3/8] z2 ([Geg]- ||[M:2/4] [Geg]2 [_eg_e']) z ||[M:3/8]!f! z2 ([G_dg]- || %57
[M:2/4] [G_dg]2 [dg_d']) z ||[M:3/8]"^rall." z2 ([cfc']- || %59
[M:2/4] [cfc']2!8va(! [c'f'c''])!8va)! z ||[M:3/8]!p!"^a Tempo." z2 [B,GB]- || %61
[M:2/4] [B,GB]2 [Bgb] z ||[M:3/8]"^molto rall." z2!p! !arpeggio![G_dg] |!pp! [g_d'g']2- [gd'g'] | %64
"^a Tempo."!p! _D>"_accel."_E=E |"_cresc." !^!=F>^FB | A>GB |!f! d>^de/ z/ | %68
!pp!"_dim." [B,GB]2 [Bgb]- ||[M:2/4] [Bgb]2 !arpeggio![bg'b'] z || %70
[K:E][M:3/8]!pp!"^rall. molto." !arpeggio![DAd] z !arpeggio![Ada] | %71
!ppp!!8va(! !arpeggio![ad'a']2- [ad'a']!8va)! ||[K:G]"^a Tempo." !arpeggio![GA^cg]3- | [GA^cg]3- | %74
 [GA^cg]3- | [GA^cg] z z |"_accel." !arpeggio![^A^cef^a]3- | [^A^cef^a]3- | [^A^cef^a] z z | %79
!f! !arpeggio![ef^a^c'e']2 z |!f!"_rall." !arpeggio![dfc'd']3- | [dfc'd']2 z || %82
[M:2/4]"^a Tempo appassionato."!mf!"_accel. e cresc." !^!b4- |!<(! b4!<)! | %84
 z2!ff!"^rall."{/^f} !^![fc']2- |!>(! [fc']4!>)! |"^a Tempo.""_accel. e cresc." !^!b4- | %87
!<(! b4!<)! | z2!ff!{/^f} !^![fc']2- |!>(! [fc']4!>)! |"^a Tempo.""_accel. e cresc." d'4- | %91
!<(! d'4!<)! |"^rall." _a2!ff!{/=a} e'2- |!>(! e'4!>)! |!p! z2"_dim."{/B} b2- | b4 | %96
"^rall." z2!>(!{/c} c'2- | c'4!>)! ||[M:3/8]!pp!"^a Tempo." z2 [Bgb]- ||[M:2/4] [Bgb]2 [Bgb] z || %100
[M:3/8] z2 [cegc']- ||[M:2/4] [cegc']2 [cdfc'] z ||[M:3/8] z2 [cegc']- || %103
[M:2/4] [cegc']2 [cdfc'] z ||[M:3/8] z2 [Bfb]- ||[M:2/4] [Bfb]2 [cgb] z ||[M:3/8] z2!pp! [Bgb]- || %107
[M:2/4] [Bgb]2 [Bgb] z ||[M:3/8] z2 [cegc']- ||[M:2/4] [cegc']2 [cdfc'] z ||[M:3/8] z2 [cegc']- || %111
[M:2/4] [cegc']2 [cdfc'] z ||[M:3/8] z2 [Bfb]- ||[K:G][M:2/4] [Bfb]2 [Bgb] z || %114
[K:B][M:3/8]!f! z2 [Bdf]- ||[M:2/4] [Bdf]2 [Bdg] z ||[M:3/8] z2 [Aeg]- ||[M:2/4] [Aeg]2 [Aea] z || %118
[M:3/8] z2 [Aeg]- ||[M:2/4] [Aeg]2 [Aea] z ||[M:3/8] z2 [Bda]- ||[M:2/4] [Bda]2 [Bdb] z || %122
[M:3/8]!f! z2 [Bdf]- ||[M:2/4] [Bdf]2 [Bdg] z ||[M:3/8] z2 [Aeg]- ||[M:2/4] [Aeg]2 [Aea] z || %126
[M:3/8] z2 [Aeg]- ||[M:2/4] [Aeg]2 [Aea] z ||[K:G][M:3/8]"^rall." z2!pp! [cegc']- || %129
[M:2/4] [cegc']2 [cdfc'] z ||[M:3/8]!pp!"^a Tempo.""_agitato" z2 ([Bgb]- || %131
[M:2/4] [Bgb]2 [dgd']) z ||[M:3/8] z2 ([cfc']- ||[M:2/4] [cfc']2 [dfd']) z || %134
[M:3/8]"_e     cresc." z2 ([cfc']- ||[M:2/4] [cfc']2 [dfd']) z ||[M:3/8] z2 ([Bgb]- || %137
[M:2/4] [Bgb]2 [dgd']) z ||[M:3/8]"^a Tempo."!pp! z2 ([B=fb]- ||[M:2/4] [B=fb]2 [fb=f']) z || %140
[M:3/8] z2 ([Geg]- ||[M:2/4] [Geg]2 [_eg_e']) z ||[M:3/8]!f! z2 ([G_dg]- || %143
[M:2/4] [G_dg]2 [dg_d']) z ||[M:3/8]"^rall." z2 ([cfc']- || %145
[M:2/4] [cfc']2!8va(! [c'f'c''])!8va)! z ||[M:3/8]!p!"^a Tempo." z2 [B,GB]- || %147
[M:2/4] [B,GB]2 [Bgb] z ||[M:3/8]"^Molto rall." z2!p! !arpeggio![G_dg] | %149
!pp! !arpeggio![g_d'g']2- [gd'g'] |"^a Tempo."!p! !^!_D>"_accel."_EE |"_cresc." =F>^FB | A>GB | %153
!f! d>^de |!pp!"_dim." [B,GB]2 [Bgb]- ||[M:2/4] [Bgb]2!8va(! !arpeggio![bg'b']!8va)! z || %156
[K:E][M:3/8]!pp!"^rall. molto." !arpeggio![DAd] z !arpeggio![Ada] | %157
!ppp!!8va(! !arpeggio![ad'a']2- [ad'a']!8va)! ||[K:G]!mf!"^a Tempo." !arpeggio![GA^cg]3- | %159
 [GA^cg]3- | [GA^cg]3- | [GA^cg] z z | !arpeggio![^A^cef^a]3- | [^A^cef^a]3- | [^A^cef^a] z z | %165
!f! !arpeggio![ef^a^c'e']2 z |!f!"_rall." !arpeggio![dfc'd']3- | [dfc'd']2 z || %168
[M:2/4]"^a Tempo appassionato."!mf!"_accel.     e      cresc." !^!b4- | b4 | %170
 z2!ff!"^rall."{/^f} !^![fc']2- |!>(! [fc']4!>)! |"^a Tempo.""_accel.    e    cresc." !^!b4- | %173
!<(! b4!<)! | z2"^rall." !^![^fc']2- |!>(! [fc']4!>)! | %176
"^a Tempo."!f!"_accel.    e    cresc." d'4- | d'4 | x2!ff!"^rall."{/=a} !^!e'2- |!>(! e'4!>)! | %180
!p! z2"_dim.  e  rall."{/B} !^!b2- | b4 | z2{/c} !^!c'2- | c'4 |!ppp! [Bgb]4- | %185
 [Bgb]2 !fermata!z2 |] %186
V:3
 ^c'>c'b | _b>a^g | =g>f=f | e>_ed | ^c>=cB | ^A>Bc | ^c>=cB | ^A>Bc | ^c>d^d | e>=f^f || %10
[M:2/4] z2"^rall.""_dim." e2- | (e2 _e2) ||[M:3/8] x3 ||[M:2/4] x4 ||[M:3/8] x3 ||[M:2/4] x4 || %16
[M:3/8] x3 ||[M:2/4] x4 ||[M:3/8] x3 ||[M:2/4] x4 ||[M:3/8] x3 ||[M:2/4] x4 ||[M:3/8] x3 || %23
[M:2/4] x4 ||[M:3/8] x3 ||[M:2/4] x4 ||[M:3/8] x3 ||[M:2/4] x4 ||[K:B][M:3/8] x3 ||[M:2/4] x4 || %30
[M:3/8] x3 ||[M:2/4] x4 ||[M:3/8] x3 ||[M:2/4] x4 ||[M:3/8] x3 ||[M:2/4] x4 ||[M:3/8] x3 || %37
[M:2/4] x4 ||[M:3/8] x3 ||[M:2/4] x4 ||[M:3/8] x3 ||[M:2/4] x4 ||[K:G][M:3/8] x3 ||[M:2/4] x4 || %44
[M:3/8] x3 ||[M:2/4] x2 [B,GB] z ||[M:3/8] x3 ||[M:2/4] x2 [DFAc] z ||[M:3/8] x3 || %49
[M:2/4] x2 [DFAc] z ||[M:3/8] x3 ||[M:2/4] x2 [B,GB] z ||[M:3/8] x3 ||[M:2/4] x2 [D=FGB] z || %54
[M:3/8] x3 ||[M:2/4] x2 [_EGc] z ||[M:3/8] x3 ||[M:2/4] x2 [_B,_E_B] z ||[M:3/8] x3 || %59
[M:2/4] x2!8va(! [dfc']!8va)! z ||[M:3/8] x3 ||[M:2/4] x4 ||[M:3/8] x3 | [_EG_B_d]2- [EGBd] | %64
 c2 c- | c2 !^!d- | d2 !^!d | !^![gb]2 !^![gb]/ x/ | x3 ||[M:2/4] x2 !arpeggio![dg] z || %70
[K:E][M:3/8] x3 |!8va(! x3!8va)! ||[K:G] x3 | x3 | x3 | x3 | x3 | x3 | x3 | x3 | x3 | x3 || %82
[M:2/4] !arpeggio![Bd] z{/B} (d2 | ^d2 e2 | =f2) x2 | e2 d2- | d2{/B} d2 | ^d2 e2 | =f2 x2 | %89
 (e2 d2) | z2({/d} =f2 | ^f2 g2) | x4 | (e2 g2) | x4 | (B2 d2) | x4 | c2- [cd] z ||[M:3/8] x3 || %99
[M:2/4] x4 ||[M:3/8] x3 ||[M:2/4] x4 ||[M:3/8] x3 ||[M:2/4] x4 ||[M:3/8] x3 ||[M:2/4] x4 || %106
[M:3/8] x3 ||[M:2/4] x4 ||[M:3/8] x3 ||[M:2/4] x4 ||[M:3/8] x3 ||[M:2/4] x4 ||[M:3/8] x3 || %113
[K:G][M:2/4] x4 ||[K:B][M:3/8] x3 ||[M:2/4] x4 ||[M:3/8] x3 ||[M:2/4] x4 ||[M:3/8] x3 || %119
[M:2/4] x4 ||[M:3/8] x3 ||[M:2/4] x4 ||[M:3/8] x3 ||[M:2/4] x4 ||[M:3/8] x3 ||[M:2/4] x4 || %126
[M:3/8] x3 ||[M:2/4] x4 ||[K:G][M:3/8] x3 ||[M:2/4] x4 ||[M:3/8] x3 ||[M:2/4] x2 [B,GB] z || %132
[M:3/8] x3 ||[M:2/4] x2 [DFAc] z ||[M:3/8] x3 ||[M:2/4] x2 [DFAc] z ||[M:3/8] x3 || %137
[M:2/4] x2 [B,GB] z ||[M:3/8] x3 ||[M:2/4] x2 [D=FGB] z ||[M:3/8] x3 ||[M:2/4] x2 [_EGc] z || %142
[M:3/8] x3 ||[M:2/4] x2 [_B,G_B] z ||[M:3/8] x3 ||[M:2/4] x2!8va(! [dfc']!8va)! z ||[M:3/8] x3 || %147
[M:2/4] x4 ||[M:3/8] x3 | !arpeggio![_EG_B_d]2- [EGBd] | c2 c- | c2 !^!d- | d2 !^!d | %153
 [gb]2 !^![gb]/ z/ | x3 ||[M:2/4] x2!8va(! x!8va)! x ||[K:E][M:3/8] x3 |!8va(! x3!8va)! || %158
[K:G] x3 | x3 | x3 | x3 | x3 | x3 | x3 | x3 | x3 | x3 ||[M:2/4] !arpeggio![Bd] z{/B} (d2 | ^d2 e2 | %170
 =f2) x2 | e2 d2- | d2{/B} d2 | ^d2 e2 | =f2{/^f} f2 | (e2 d2) | z2({/d} =f2 | ^f2 g2 | _a2) x2 | %179
 (e2 g2) | x4 | B2 d2 | x4 | c2- [cd] z | x4 | x4 |] %186
V:4
 ^a>=a^g | =g>f^e | =e>_ed | ^c>=cB | _B2 A- | A3- | A2 A- | A3 |[K:bass]!ped! D,3- | D,3- || %10
[M:2/4] D,4- | D,4!ped-up! ||[M:3/8]!ped! z2 [DG]- ||[M:2/4] [DG]2 [DG]!ped-up! z || %14
[M:3/8]!ped! z2 [A,EG]- ||[M:2/4] [A,EG]2 [DFA] z!ped-up! ||[M:3/8]!ped! z2 [A,EG]- || %17
[M:2/4] [A,EG]2 [DFA]!ped-up! z ||[M:3/8] z2 [DFG]- ||[M:2/4] [DFG]2 [E_G] z ||[M:3/8] z2 [DG]- || %21
[M:2/4] [DG]2 [DG] z ||[M:3/8] z2 [A,EG]- ||[M:2/4] [A,EG]2 [DFA] z ||[M:3/8] z2 [A,EG]- || %25
[M:2/4] [A,EG]2 [DFA] z ||[M:3/8] z2 [DFG]- ||[M:2/4] [DFG]2 [DG] z ||[K:B][M:3/8] z2 [F,B,D]- || %29
[M:2/4] [F,B,D]2 [DFB] z ||[M:3/8] z2 [F,CE]- ||[M:2/4] [F,CE]2 [CEF] z ||[M:3/8] z2 [F,CE]- || %33
[M:2/4] [F,CE]2 [CEF] z ||[M:3/8] z2 [F,B,D]- ||[M:2/4] [F,B,D]2 [B,DF] z ||[M:3/8] z2 [F,B,D]- || %37
[M:2/4] [F,B,D]2 [B,DG] z ||[M:3/8] z2 [F,CE]- ||[M:2/4] [F,CE]2 [CEF] z ||[M:3/8] z2 [F,CE]- || %41
[M:2/4] [F,CE]2 [CEF] z ||[K:G][M:3/8] z2 [A,EG]- ||[M:2/4] [A,EG]2 [DFA] z ||[M:3/8] z2 [DG]- || %45
[M:2/4] [DG]2 x2 ||[M:3/8] z2 [A,DFA]- ||[M:2/4] [A,DFA]2 x2 ||[M:3/8] z2 [A,DFA]- || %49
[M:2/4] [A,DFA]2 x2 ||[M:3/8] z2 [DG]- ||[M:2/4] [DG]2 x2 ||[M:3/8] z2 [B,F=A]- || %53
[M:2/4] [B,F=A]2 x2 ||[M:3/8] x2 [G,CE]- ||[M:2/4] [G,CE]2 x2 ||[M:3/8] x2 [_E,_B,_E]- || %57
[M:2/4] [_E,_B,_E]2 x2 ||[M:3/8] z2[I:staff -1] [A,DA]- ||[M:2/4] [A,DA]2[I:staff +1] x2 || %60
[M:3/8] z2 [D,G,]- ||[M:2/4] [D,G,]2 [DG] z ||[M:3/8]!f!!ped! _E,,3- | _E,,2- E,,!ped-up! | %64
 z2 [D,A,C]- | [D,A,C]2 !^!D- | D2 (!^!D |[K:treble] !^![GB]2) !^![GB]/ z/ | %68
[K:bass]"_una corda"!ped! z2 [DG]- ||[M:2/4] [DG]2 x2!ped-up! || %70
[K:E][M:3/8]!ped! !arpeggio![B,,F,B,] z !arpeggio![F,B,F]!ped-up! | %71
[K:treble]"_una corda" !arpeggio![FBf]2- [FBf] ||[K:G][K:bass]!ped! !arpeggio![E,A,^CE]3- | %73
 [E,A,^CE]3- | [E,A,^CE]3- | [E,A,^CE] z z!ped-up! |!ped! !arpeggio![^C,F,^A,E]3- | [^C,F,^A,E]3- | %78
 [^C,F,^A,E]!ped-up! z z |[K:treble]!ped! !arpeggio![^CF^A^c]2 z!ped-up! | %80
[K:bass]!ped!{/[D,D,,]} !arpeggio![DFAc]3- | [DFAc]2 z!ped-up! ||[M:2/4][K:bass] z2 [GB]2- | %83
 [GB]4 |!ped! z2[K:treble] !^![FAc]2- | [FAc]4!ped-up! |[K:bass]!ped! z2 [GB]2- | [GB]4!ped-up! | %88
!ped! z2[K:treble] !arpeggio!!^![FAc]2- | [FAc]4!ped-up! |[K:bass]!ped! z2 (=F2 | ^F2!ped-up! G2) | %92
!ped! z2 (!^!=A2 | _A2 G2)!ped-up! |"_una corda" z2 G2- | G4 | z2 F2- | F4 || %98
[M:3/8]!ped! z2 [DG]- ||[M:2/4] [DG]2 [DG]!ped-up! z ||[M:3/8]!ped! z2 [A,EG]- || %101
[M:2/4] [A,EG]2 [DFA] z!ped-up! ||[M:3/8]!ped! z2 [A,EG]- ||[M:2/4] [A,EG]2 [DFA]!ped-up! z || %104
[M:3/8] z2 [DFG]- ||[M:2/4] [DFG]2 [E_G] z ||[M:3/8] z2 [DG]- ||[M:2/4] [DG]2 [DG] z || %108
[M:3/8] z2 [A,EG]- ||[M:2/4] [A,EG]2 [DFA] z ||[M:3/8] z2 [A,EG]- ||[M:2/4] [A,EG]2 [DFA] z || %112
[M:3/8] z2 [DFG]- ||[K:G][M:2/4] [DFG]2 [DG] z ||[K:B][M:3/8] z2 [F,B,D]- || %115
[M:2/4] [F,B,D]2 [B,DG] z ||[M:3/8] z2 [F,CE]- ||[M:2/4] [F,CE]2 [CEF] z ||[M:3/8] z2 [F,CE]- || %119
[M:2/4] [F,CE]2 [CEF] z ||[M:3/8] z2 [F,B,D]- ||[M:2/4] [F,B,D]2 [B,DF] z ||[M:3/8] z2 [F,B,D]- || %123
[M:2/4] [F,B,D]2 [B,DG] z ||[M:3/8] z2 [F,CE]- ||[M:2/4] [F,CE]2 [CEF] z ||[M:3/8] z2 [F,CE]- || %127
[M:2/4] [F,CE]2 [CEF] z ||[K:G][M:3/8] z2 [A,EG]- ||[M:2/4] [A,EG]2 [DFA] z ||[M:3/8] z2 [DG]- || %131
[M:2/4] [DG]2 x2 ||[M:3/8] z2 [A,DFA]- ||[M:2/4] [A,DFA]2 x2 ||[M:3/8] z2 [A,DFA]- || %135
[M:2/4] [A,DFA]2 x2 ||[M:3/8] z2 [DG]- ||[M:2/4] [DG]2 x2 ||[M:3/8] z2 [B,F=A]- || %139
[M:2/4] [B,F=A]2 x2 ||[M:3/8] x2 [G,CE]- ||[M:2/4] [G,CE]2 x2 ||[M:3/8] z2 [_E,_B,_E]- || %143
[M:2/4] [_E,_B,_E]2 x2 ||[M:3/8] z2 [A,DA]- ||[M:2/4] [A,DA]2 x2 ||[M:3/8]!ped! z2 [D,G,]- || %147
[M:2/4] [D,G,]2 [DG]!ped-up! z ||[M:3/8]!f!!ped! _E,,3- | _E,,2- E,,!ped-up! | z2 [D,A,C]- | %151
 [D,A,C]2 !^!D- |!<(! D2 (!^!D!<)! |!f! [GB]2) !^![GB]/ z/ |!ped! z2 [DG]- || %155
[M:2/4] [DG]2[K:treble] !arpeggio![dg] z!ped-up! || %156
[K:E][M:3/8][K:bass]!ped! !arpeggio![B,,F,B,] z !arpeggio![F,B,F]!ped-up! | %157
[K:treble]"_una corda" !arpeggio![FBf]2- [FBf] ||[K:G][K:bass]!ped! !arpeggio![E,A,^CE]3- | %159
 [E,A,^CE]3- | [E,A,^CE]3- | [E,A,^CE]!ped-up! z z |!ped! !arpeggio![^C,F,^A,E]3- | [^C,F,^A,E]3- | %164
 [^C,F,^A,E]!ped-up! z z |[K:treble]!ped! !arpeggio![^CF^A^c]2 z!ped-up! | %166
[K:bass]!ped!{/[D,,D,]} !arpeggio![DFAc]3- | [DFAc]2!ped-up! z ||[M:2/4][K:bass] z2 [GB]2- | %169
 [GB]4 |!ped! z2[K:treble] !arpeggio!!^![FAc]2- | [FAc]4!ped-up! |[K:bass]!ped! z2 [GB]2- | %173
 [GB]4!ped-up! |!ped! z2[K:treble] !arpeggio!!^![FAc]2- | [FAc]4!ped-up! |[K:bass]!ped! z2 (=F2 | %177
 ^F2!ped-up! G2) |!ped! z2 (!^!=A2 | _A2 G2)!ped-up! |"_una corda" z2 G2- | G4 | z2 F2- | F4 | %184
 [G,,D,]4- | [G,,D,]2 !fermata!z2 |] %186
V:5
 x3 | x3 | x3 | x3 | x3 | x3 | (A,2 A) | x3 |[K:bass] x3 | x3 ||[M:2/4] x4 | x4 || %12
[M:3/8] [G,,G,]3- ||[M:2/4] [G,,G,]2 z2 ||[M:3/8] [A,,A,]3- ||[M:2/4] [A,,A,]2 z2 || %16
[M:3/8] [D,,D,]3- ||[M:2/4] [D,,D,]2 z2 ||[M:3/8] [G,,G,]3- ||[M:2/4] [G,,G,]2 z2 || %20
[M:3/8] [G,,G,]3- ||[M:2/4] [G,,G,]2 z2 ||[M:3/8] [A,,A,]3- ||[M:2/4] [A,,A,]2 z2 || %24
[M:3/8] [D,,D,]3- ||[M:2/4] [D,,D,]2 z2 ||[M:3/8] [G,,G,]3- ||[M:2/4] [G,,G,]2 z2 || %28
[K:B][M:3/8] [B,,B,]3- ||[M:2/4] [B,,B,]2 z2 ||[M:3/8] [F,,F,]3- ||[M:2/4] [F,,F,]2 z2 || %32
[M:3/8] [F,,F,]3- ||[M:2/4] [F,,F,]2 z2 ||[M:3/8] [B,,B,]3- ||[M:2/4] [B,,B,]2 z2 || %36
[M:3/8] [B,,B,]3- ||[M:2/4] [B,,B,]2 z2 ||[M:3/8] [F,,F,]3- ||[M:2/4] [F,,F,]2 z2 || %40
[M:3/8] [F,,F,]3- ||[M:2/4] [F,,F,]2 z2 ||[K:G][M:3/8] [D,,D,]3- ||[M:2/4] [D,,D,]2 z2 || %44
[M:3/8] G,,3- ||[M:2/4] G,,2 z2 ||[M:3/8] A,,3- ||[M:2/4] A,,2 z2 ||[M:3/8] D,,3- || %49
[M:2/4] D,,2 z2 ||[M:3/8] G,,3- ||[M:2/4] G,,2 z2 ||[M:3/8] G,,3- ||[M:2/4] G,,2 z2 || %54
[M:3/8] C,3- ||[M:2/4] C,2 z2 ||[M:3/8] _E,,3- ||[M:2/4] _E,,2 z2 ||[M:3/8] =D,,3- || %59
[M:2/4] D,,2 z2 ||[M:3/8] [G,,D,]3- ||[M:2/4] [G,,D,]2 z2 ||[M:3/8] z2 !arpeggio![_E,_B,_E] | x3 | %64
 D,,3- | D,,3 | G,,3 |[K:treble] D>^DE/ x/ |[K:bass] [G,,D,]3- ||[M:2/4] [G,,D,]2 z2 || %70
[K:E][M:3/8] x3 |[K:treble] x3 ||[K:G][K:bass] x3 | x3 | x3 | x3 | x3 | x3 | x3 |[K:treble] x3 | %80
[K:bass] x3 | x3 ||[M:2/4][K:bass] x2 D2 | ^D2 E2 | [A,,A,]2[K:treble] (!arpeggio!D2 | E2 D2) | %86
[K:bass] x2 D2 | ^D2 E2 | [A,,A,]2[K:treble] (D2 | E2 D2) |[K:bass] x2 !arpeggio![G,B,]2- | %91
 [G,B,]4 | x2 !arpeggio![G,CE]2- | [G,CE]4 | x2 (!arpeggio!E2 | _E2 D2) | x2 !arpeggio![A,-E]2 | %97
 [A,-_E]2 [A,D] z ||[M:3/8] [G,,G,]3- ||[M:2/4] [G,,G,]2 z2 ||[M:3/8] [A,,A,]3- || %101
[M:2/4] [A,,A,]2 z2 ||[M:3/8] [D,,D,]3- ||[M:2/4] [D,,D,]2 z2 ||[M:3/8] [G,,G,]3- || %105
[M:2/4] [G,,G,]2 z2 ||[M:3/8] [G,,G,]3- ||[M:2/4] [G,,G,]2 z2 ||[M:3/8] [A,,A,]3- || %109
[M:2/4] [A,,A,]2 z2 ||[M:3/8] [D,,D,]3- ||[M:2/4] [D,,D,]2 z2 ||[M:3/8] [G,,G,]3- || %113
[K:G][M:2/4] [G,,G,]2 z2 ||[K:B][M:3/8] [B,,B,]3- ||[M:2/4] [B,,B,]2 z2 ||[M:3/8] [F,,F,]3- || %117
[M:2/4] [F,,F,]2 z2 ||[M:3/8] [F,,F,]3- ||[M:2/4] [F,,F,]2 z2 ||[M:3/8] [B,,B,]3- || %121
[M:2/4] [B,,B,]2 z2 ||[M:3/8] [B,,B,]3- ||[M:2/4] [B,,B,]2 z2 ||[M:3/8] [F,,F,]3- || %125
[M:2/4] [F,,F,]2 z2 ||[M:3/8] [F,,F,]3- ||[M:2/4] [F,,F,]2 z2 ||[K:G][M:3/8] [D,,D,]3- || %129
[M:2/4] [D,,D,]2 z2 ||[M:3/8] G,,3- ||[M:2/4] G,,2 z2 ||[M:3/8] A,,3- ||[M:2/4] A,,2 z2 || %134
[M:3/8] D,,3- ||[M:2/4] D,,2 z2 ||[M:3/8] G,,3- ||[M:2/4] G,,2 z2 ||[M:3/8] G,,3- || %139
[M:2/4] G,,2 z2 ||[M:3/8] C,3- ||[M:2/4] C,2 z2 ||[M:3/8] _E,,3- ||[M:2/4] _E,,2 z2 || %144
[M:3/8] D,,3- ||[M:2/4] D,,2 z2 ||[M:3/8] [G,,D,]3- ||[M:2/4] [G,,D,]2 z2 || %148
[M:3/8] z2 !arpeggio![_E,_B,_E] | x3 | D,,3- | D,,2 z | G,,3 | D>^DE/ z/ | [G,,D,]3- || %155
[M:2/4] [G,,D,]2[K:treble] z2 ||[K:E][M:3/8][K:bass] x3 |[K:treble] x3 ||[K:G][K:bass] x3 | x3 | %160
 x3 | x3 | x3 | x3 | x3 |[K:treble] x3 |[K:bass] x3 | x3 ||[M:2/4][K:bass] x2 (D2 | ^D2) E2 | %170
 [A,,A,]2[K:treble] (D2 | E2 D2) |[K:bass] x2 D2 | ^D2 E2 | [A,,A,]2[K:treble] (D2 | E2 D2) | %176
[K:bass] x2 !arpeggio![G,B,]2- | [G,B,]4 | x2 !arpeggio![G,CE]2- | [G,CE]4 | x2 (!arpeggio!E2 | %181
 _E2 D2) | x2 !arpeggio![A,-E]2 | [A,-_E]2 [A,D] z | x4 | x4 |] %186
V:6
 x3 | x3 | x3 | x3 | x3 | x3 | x3 | x3 | z2 [=DFA=c]- | [DFAc]3- ||[M:2/4] [DFAc]4- | [DFAc]4 || %12
[M:3/8] x3 ||[M:2/4] x4 ||[M:3/8] x3 ||[M:2/4] x4 ||[M:3/8] x3 ||[M:2/4] x4 ||[M:3/8] x3 || %19
[M:2/4] x4 ||[M:3/8] x3 ||[M:2/4] x4 ||[M:3/8] x3 ||[M:2/4] x4 ||[M:3/8] x3 ||[M:2/4] x4 || %26
[M:3/8] x3 ||[M:2/4] x4 ||[K:B][M:3/8] x3 ||[M:2/4] x4 ||[M:3/8] x3 ||[M:2/4] x4 ||[M:3/8] x3 || %33
[M:2/4] x4 ||[M:3/8] x3 ||[M:2/4] x4 ||[M:3/8] x3 ||[M:2/4] x4 ||[M:3/8] x3 ||[M:2/4] x4 || %40
[M:3/8] x3 ||[M:2/4] x4 ||[K:G][M:3/8] x3 ||[M:2/4] x4 ||[M:3/8] x3 ||[M:2/4] x4 ||[M:3/8] x3 || %47
[M:2/4] x4 ||[M:3/8] x3 ||[M:2/4] x4 ||[M:3/8] x3 ||[M:2/4] x4 ||[M:3/8] x3 ||[M:2/4] x4 || %54
[M:3/8] x3 ||[M:2/4] x4 ||[M:3/8] x3 ||[M:2/4] x4 ||[M:3/8] x3 ||[M:2/4] x2!8va(! x!8va)! x || %60
[M:3/8] x3 ||[M:2/4] x4 ||[M:3/8] x3 | x3 | x3 | x3 | x3 | x3 | x3 ||[M:2/4] x4 ||[K:E][M:3/8] x3 | %71
!8va(! x3!8va)! ||[K:G] x3 | x3 | x3 | x3 | x3 | x3 | x3 | x3 | x3 | x3 ||[M:2/4] x4 | x4 | x4 | %85
 x4 | x4 | x4 | x4 | x4 | x4 | x4 | x4 | x4 | x4 | x4 | x4 | x4 ||[M:3/8] x3 ||[M:2/4] x4 || %100
[M:3/8] x3 ||[M:2/4] x4 ||[M:3/8] x3 ||[M:2/4] x4 ||[M:3/8] x3 ||[M:2/4] x4 ||[M:3/8] x3 || %107
[M:2/4] x4 ||[M:3/8] x3 ||[M:2/4] x4 ||[M:3/8] x3 ||[M:2/4] x4 ||[M:3/8] x3 ||[K:G][M:2/4] x4 || %114
[K:B][M:3/8] x3 ||[M:2/4] x4 ||[M:3/8] x3 ||[M:2/4] x4 ||[M:3/8] x3 ||[M:2/4] x4 ||[M:3/8] x3 || %121
[M:2/4] x4 ||[M:3/8] x3 ||[M:2/4] x4 ||[M:3/8] x3 ||[M:2/4] x4 ||[M:3/8] x3 ||[M:2/4] x4 || %128
[K:G][M:3/8] x3 ||[M:2/4] x4 ||[M:3/8] x3 ||[M:2/4] x4 ||[M:3/8] x3 ||[M:2/4] x4 ||[M:3/8] x3 || %135
[M:2/4] x4 ||[M:3/8] x3 ||[M:2/4] x4 ||[M:3/8] x3 ||[M:2/4] x4 ||[M:3/8] x3 ||[M:2/4] x4 || %142
[M:3/8] x3 ||[M:2/4] x4 ||[M:3/8] x3 ||[M:2/4] x2!8va(! x!8va)! x ||[M:3/8] x3 ||[M:2/4] x4 || %148
[M:3/8] x3 | x3 | x3 | x3 | x3 | x3 | x3 ||[M:2/4] x2!8va(! x!8va)! x ||[K:E][M:3/8] x3 | %157
!8va(! x3!8va)! ||[K:G] x3 | x3 | x3 | x3 | x3 | x3 | x3 | x3 | x3 | x3 ||[M:2/4] x4 | x4 | x4 | %171
 x4 | x4 | x4 | x4 | x4 | x4 | x4 | x4 | x4 | x4 | x4 | x4 | x4 | x4 | x4 |] %186
V:7
 x3 | x3 | x3 | x3 | x3 | x3 | x3 | x3 |[K:bass] x3 | x3 ||[M:2/4] x4 | x4 ||[M:3/8] x3 || %13
[M:2/4] x4 ||[M:3/8] x3 ||[M:2/4] x4 ||[M:3/8] x3 ||[M:2/4] x4 ||[M:3/8] x3 ||[M:2/4] x4 || %20
[M:3/8] x3 ||[M:2/4] x4 ||[M:3/8] x3 ||[M:2/4] x4 ||[M:3/8] x3 ||[M:2/4] x4 ||[M:3/8] x3 || %27
[M:2/4] x4 ||[K:B][M:3/8] x3 ||[M:2/4] x4 ||[M:3/8] x3 ||[M:2/4] x4 ||[M:3/8] x3 ||[M:2/4] x4 || %34
[M:3/8] x3 ||[M:2/4] x4 ||[M:3/8] x3 ||[M:2/4] x4 ||[M:3/8] x3 ||[M:2/4] x4 ||[M:3/8] x3 || %41
[M:2/4] x4 ||[K:G][M:3/8] x3 ||[M:2/4] x4 ||[M:3/8] x3 ||[M:2/4] x4 ||[M:3/8] x3 ||[M:2/4] x4 || %48
[M:3/8] x3 ||[M:2/4] x4 ||[M:3/8] x3 ||[M:2/4] x4 ||[M:3/8] x3 ||[M:2/4] x4 ||[M:3/8] x3 || %55
[M:2/4] x4 ||[M:3/8] x3 ||[M:2/4] x4 ||[M:3/8] x3 ||[M:2/4] x4 ||[M:3/8] x3 ||[M:2/4] x4 || %62
[M:3/8] x3 | x3 | x3 | x3 | x3 |[K:treble] x3 |[K:bass] x3 ||[M:2/4] x4 ||[K:E][M:3/8] x3 | %71
[K:treble] x3 ||[K:G][K:bass] x3 | x3 | x3 | x3 | x3 | x3 | x3 |[K:treble] x3 |[K:bass] x3 | x3 || %82
[M:2/4][K:bass] [G,,D,]4- | [G,,D,]2 z2 | x2[K:treble] x2 | x4 |[K:bass] [G,,D,]4- | [G,,D,]2 z2 | %88
 x2[K:treble] x2 | x4 |[K:bass] G,,4- | G,,2 z2 | !^!C,,4- | C,,2 z2 | D,,4- | D,,4 | D,,4- | %97
 D,,4 ||[M:3/8] x3 ||[M:2/4] x4 ||[M:3/8] x3 ||[M:2/4] x4 ||[M:3/8] x3 ||[M:2/4] x4 ||[M:3/8] x3 || %105
[M:2/4] x4 ||[M:3/8] x3 ||[M:2/4] x4 ||[M:3/8] x3 ||[M:2/4] x4 ||[M:3/8] x3 ||[M:2/4] x4 || %112
[M:3/8] x3 ||[K:G][M:2/4] x4 ||[K:B][M:3/8] x3 ||[M:2/4] x4 ||[M:3/8] x3 ||[M:2/4] x4 || %118
[M:3/8] x3 ||[M:2/4] x4 ||[M:3/8] x3 ||[M:2/4] x4 ||[M:3/8] x3 ||[M:2/4] x4 ||[M:3/8] x3 || %125
[M:2/4] x4 ||[M:3/8] x3 ||[M:2/4] x4 ||[K:G][M:3/8] x3 ||[M:2/4] x4 ||[M:3/8] x3 ||[M:2/4] x4 || %132
[M:3/8] x3 ||[M:2/4] x4 ||[M:3/8] x3 ||[M:2/4] x4 ||[M:3/8] x3 ||[M:2/4] x4 ||[M:3/8] x3 || %139
[M:2/4] x4 ||[M:3/8] x3 ||[M:2/4] x4 ||[M:3/8] x3 ||[M:2/4] x4 ||[M:3/8] x3 ||[M:2/4] x4 || %146
[M:3/8] x3 ||[M:2/4] x4 ||[M:3/8] x3 | x3 | x3 | x3 | x3 | x3 | x3 ||[M:2/4] x2[K:treble] x2 || %156
[K:E][M:3/8][K:bass] x3 |[K:treble] x3 ||[K:G][K:bass] x3 | x3 | x3 | x3 | x3 | x3 | x3 | %165
[K:treble] x3 |[K:bass] x3 | x3 ||[M:2/4][K:bass] [G,,D,]4- | [G,,D,]2 z2 | x2[K:treble] x2 | x4 | %172
[K:bass] [G,,D,]4- | [G,,D,]2 z2 | x2[K:treble] x2 | x4 |[K:bass] G,,4- | G,,2 z2 | C,,4- | %179
 C,,2 z2 | D,,4- | D,,4 | D,,4- | D,,4 | x4 | x4 |] %186

